Breeze Round Dark/actions/24/labplot-worksheet.svg

<svg xmlns="http://www.w3.org/2000/svg" viewBox="0 0 24 24" width="24" height="24">
  <defs id="defs3051">
    <style type="text/css" id="current-color-scheme">.ColorScheme-Text {color:#fcfcfc;}</style>
  </defs>
  <g transform="translate(1,1)">
    <path style="fill:currentColor;fill-opacity:1;stroke:none" d="M 6,3 2,7 c 0,0 0,8 0,10 0,2 2,2 2,2 H 5 V 18 H 4 C 4,18 3,18 3,17 3,16 3,8 3,8 H 7 V 4 h 11 c 0,0 1,0 1,1 0,1 0,2 0,2 h 1 c 0,0 0,0 0,-2 0,-2 -2,-2 -2,-2 z m 8,4 -4.0019531,4.001953 H 8.0019531 v 1 h 2.4101559 l 3.589844,-3.5898436 2.123047,2.1230466 0.0059,-0.0039 0.0039,0.0039 2.828125,-2.8281248 C 18.965857,7.7120312 18.255859,7 18.255859,7 l -2.125,2.125 L 14.003906,7 l -0.002,0.00195 z M 7,9 c 0,0 0,6 0,8 0,2 2,2 2,2 H 19 V 18.001953 18 16.867188 L 18.958984,16.828125 16.130859,14 l -0.0039,0.0039 L 16.121094,14 13.998047,16.123047 10.875,13 H 9.4609375 8 V 9 Z m 1,5 h 2.460938 l 3.535156,3.535156 0.002,-0.002 0.002,0.002 2.126953,-2.125 2.125,2.125 L 18.734375,18 H 9 c 0,0 -1,0 -1,-1 0,-1 0,-3 0,-3 z" class="ColorScheme-Text"/>
  </g>
</svg>

<svg xmlns="http://www.w3.org/2000/svg" viewBox="0 0 24 24">
  <defs id="defs3051">
    <style type="text/css" id="current-color-scheme">
      .ColorScheme-Text {
        color:#eff0f1;
      }
      </style>
  </defs><g transform="translate(1,1)">
 <path 
     style="fill:currentColor;fill-opacity:1;stroke:none" 
     d="M 6 3 L 2 7 L 2 19 L 5 19 L 5 18 L 3 18 L 3 8 L 7 8 L 7 4 L 19 4 L 19 7 L 20 7 L 20 3 L 6 3 z M 14 7 L 9.9980469 11.001953 L 8.0019531 11.001953 L 8.0019531 12.001953 L 10.412109 12.001953 L 14.001953 8.4121094 L 16.125 10.535156 L 16.130859 10.53125 L 16.134766 10.535156 L 18.962891 7.7070312 C 18.965857 7.7120312 18.255859 7 18.255859 7 L 16.130859 9.125 L 14.003906 7 L 14.001953 7.0019531 L 14 7 z M 7 9 L 7 19 L 8 19 L 19 19 L 19 18.001953 L 19 18 L 19 16.867188 L 18.958984 16.828125 L 16.130859 14 L 16.126953 14.003906 L 16.121094 14 L 13.998047 16.123047 L 10.875 13 L 9.4609375 13 L 8 13 L 8 9 L 7 9 z M 8 14 L 10.460938 14 L 13.996094 17.535156 L 13.998047 17.533203 L 14 17.535156 L 16.126953 15.410156 L 18.251953 17.535156 L 18.734375 18 L 8 18 L 8 14 z "
	 class="ColorScheme-Text"
     />
</g></svg>
